X:0
T:The Iron Division
Z:Jack Campin <http://www.campin.me.uk/> version 1.0 September 2001
C:Geo. S. McLennan
S:G.S. McLennan, Highland Bagpipe Music book 1, 1929
B:NLS MH.s.234
R:March
M:2/4
L:1/16
Q:1/4=80
N:upbeat for part 4 is a semiquaver in the book
K:Hp
     af|{gef}e2c2     {gcd}c2{g}B{d}A|{gcd}c2e2        {A}e2fg      |\
             ag{afg}fe {ag}a2c2      |{gcd}c2{g}B2  {GdGe}B2af      |
        {gef}e2c2     {gcd}c2{g}B{d}A|{gcd}c2e2        {A}e2fg      |\
             ag{afg}fe {ag}a2A2      |{gcd}c2{e}A2 {gAGAG}A2       :|
  {g}cd|{gef}e2a2      {fg}f2a2      | {eg}e2c2      {gcd}c2{f}B{d}A|\
        {Gdc}d3f      {gef}ec{g}B{d}A|{gcd}c2{g}B2  {GdGe}B2{g}cd   |
        {gef}e2a2      {fg}f2a2      | {eg}e2c2      {gef}e2fg      |\
             ag{afg}fe {ag}a2A2      |{gcd}c2{e}A2 {gAGAG}A2       :|
{gcd}cB|  {G}A3{d}c   {gef}e3f       |  {g}e2c2        {g}e2a2      |\
          {g}a2gf     {gef}e2c2      |{gcd}c2{g}B2  {GdGe}B2{gcd}cB |
          {G}A3c        {g}e3f       |{gef}e2c2      {gef}e2fg      |\
             ag{afg}fe {ag}a2A2      |{gcd}c2{e}A2 {gAGAG}A2       :|
     e2|     ag{afg}fe {ag}a3f       |  {g}ef{g}ed   {gcd}c2e2      |\
             ag{afg}fe {ag}a2c2      |{gcd}c2{g}B2  {GdGe}B3e       |
             ag{afg}fe {ag}a3f       |  {g}ef{g}ed   {gcd}c2e2      |\
             ag{afg}fe {ag}a2A2      |{gcd}c2{e}A2 {gAGAG}A2       :|

